console-network-outline.svg

<svg fill="currentColor" viewBox="0 0 24 24"><path d="M15 20a1 1 0 0 0-1-1h-1v-2h4a2 2 0 0 0 2-2V5a2 2 0 0 0-2-2H7a2 2 0 0 0-2 2v10a2 2 0 0 0 2 2h4v2h-1a1 1 0 0 0-1 1H2v2h7a1 1 0 0 0 1 1h4a1 1 0 0 0 1-1h7v-2zm-8-5V5h10v10zm1-8.11 3.56 3.56L8 14h2.53l2.92-2.92c.33-.34.33-.9 0-1.26L10.5 6.89zm8 5.33h-2.67V14H16z"/></svg>

<svg  viewBox="0 0 24 24" fill="currentColor"><path  d="M15,20A1,1 0 0,0 14,19H13V17H17A2,2 0 0,0 19,15V5A2,2 0 0,0 17,3H7A2,2 0 0,0 5,5V15A2,2 0 0,0 7,17H11V19H10A1,1 0 0,0 9,20H2V22H9A1,1 0 0,0 10,23H14A1,1 0 0,0 15,22H22V20H15M7,15V5H17V15H7M8,6.89L11.56,10.45L8,14H10.53L13.45,11.08C13.78,10.74 13.78,10.18 13.45,9.82L10.5,6.89H8M16,12.22H13.33V14H16V12.22Z"/></svg>
